X:1
T:Fellowship of the ring
Z:DarkBlade337
M:3/4
L:1/8
Q:1/4=168
K:C

z6|z3 z/2
%"The Fellowship Theme"
A2-A/2-|A3- A/2G2-G/2-|G3/2GGA2-A/2-|
A4-A/2z3/2|z3/2def2-f/2-|f3/2edc2-c/2-|c3/2ded2-d/2-|
d3- d/2c2-c/2-|c3/2B2A2-A/2-|A3- A/2G2-G/2-|G3/2EGA2-A/2-|
A6-|A/2zdef2-f/2-|f3/2edc2-c/2-|c3/2d2e2-e/2-|
e3- e/2e2-e/2-|e3
